icons/linear-ele-communication-phone-mobile-1.svg

<svg xmlns="http://www.w3.org/2000/svg" width="32px" height="32px" viewBox="0 0 32 32" version="1.1">
    <title>linear-ele-communication-phone-mobile-1</title>
    <g id="linear-ele-communication-phone-mobile-1" stroke-width="1" fill-rule="evenodd">
        <path d="M24,2 C26.209139,2 28,3.790861 28,6 L28,26 C28,28.209139 26.209139,30 24,30 L8,30 C5.790861,30 4,28.209139 4,26 L4,6 C4,3.790861 5.790861,2 8,2 L24,2 Z M24,4 L8,4 C6.8954305,4 6,4.8954305 6,6 L6,26 C6,27.1045695 6.8954305,28 8,28 L24,28 C25.1045695,28 26,27.1045695 26,26 L26,6 C26,4.8954305 25.1045695,4 24,4 Z M16,22 C17.1045695,22 18,22.8954305 18,24 C18,25.1045695 17.1045695,26 16,26 C14.8954305,26 14,25.1045695 14,24 C14,22.8954305 14.8954305,22 16,22 Z M20,6 C20.5522847,6 21,6.44771525 21,7 C21,7.55228475 20.5522847,8 20,8 L12,8 C11.4477153,8 11,7.55228475 11,7 C11,6.44771525 11.4477153,6 12,6 L20,6 Z" id="&#24418;&#29366;" fill-rule="nonzero" />
    </g>
</svg>

<svg xmlns="http://www.w3.org/2000/svg" viewBox="0 0 32 32"><path fill="currentColor" d="M24 2a4 4 0 0 1 4 4v20a4 4 0 0 1-4 4H8a4 4 0 0 1-4-4V6a4 4 0 0 1 4-4zm0 2H8a2 2 0 0 0-2 2v20a2 2 0 0 0 2 2h16a2 2 0 0 0 2-2V6a2 2 0 0 0-2-2m-8 18a2 2 0 1 1 0 4 2 2 0 0 1 0-4m4-16a1 1 0 0 1 0 2h-8a1 1 0 0 1 0-2z"/></svg>
